X: 32
T: 29. LANEY TUNIN' HIS FIDDLE
C: Sarah Armstrong
B: Sam Bayard, "Hill Country Tunes" 1944 #29
S: Played by Mrs Sarah Armstrong, (near) Derry, PA, Nov 18 1943. Composed by herself.
R: reel
M: 4/4
L: 1/8
Z: 2010 John Chambers <jc:trillian.mit.edu>
K: D
e2e2 A2A2 | [A2D2][A2D2] A,3z | [A2D2]FA B2A2 | [A2D2]FA B2A2 |
e2e2 A2A2 | D2D2 A,4 | D2FA B2[A2D2] | [AD]zz2 Dz z2 :|
|: D2FA B2[A2D2] | [A2D2]FA B2[A2D2] | c3B [A2D2][AF]A | [B2D2][A2D2] [A4D4] |
D2FA B2[A2D2] | D2FA B2[A2D2] | c2B2 AAGE | D2DD D2z2 :|

%%sep 2 1 500
%%sep 1 1 500

